X: 14706
T: Gan Ainm
R: jig
M: 6/8
K: Dmajor
d/e/|d z c B z c|A3 A e2|d2 e f2 c|d2 e f2 d/e/|
d z c B z c|A2 A g2 f|e2 B c2 A|d3 d2||
ggg f2 d|e2 c d2 B|BBB d3|BBB d3|
ggg f2 d|e2 c d2 B|BBB d3|=c2 B G2||
E|c3 d2 c|B3 A2 B|c z e A z c|B z e E z E|
c3 d2 c|B3 A2 c|B2 d G2 e|D3 D3||

